shader_type canvas_item;

void vertex() {
	// Called for every vertex the material is visible on.
}

void fragment() {
	COLOR.rgb = mix(vec3((COLOR.r + COLOR.g + COLOR.b) / 3.0),  vec3(0.299 * COLOR.r + 0.587 * COLOR.g + 0.114 * COLOR.b), 1);
	
}

//void light() {
	// Called for every pixel for every light affecting the CanvasItem.
	// Uncomment to replace the default light processing function with this one.
//}
